X: 19
T:La Valse des Jouets
R:
C:Michel Faubert
S:The 
Z:Added by alf.
M:3/4
L:1/8
Q:1/4=140
K:D
|:fe fg fe|dB AFD2|fe fg fe|dB AFD2|
ed ef ed|c3 d cB|AE AB cA|dB AF Ad|
|fe fg fe|dB AFD2|fe fg fe|dB AF D2|
ed ef ed|c3 d cB|AB AG FE|[1 D3 F Ad:|[2 D3 d dc||
dA FA dA|B3 d dB|cA Bc de|f3 f df|
bf df bf|g3 e ed|ce Ac ae|f3 d dc|
BF FB BF|G3 e ed|cB AG FE|F4F2|
GF GA Bc|de f3f|ge ce BA|[1 d3 d dc:|[2 d3 F Ad|]
